public/images/facilities/qingdao_coach_station.svg

<svg xmlns="http://www.w3.org/2000/svg" width="12" height="12" data-name="图层 1" viewBox="0 0 10.82 10.82">
  <path d="M6.029 8.916A1.147 1.147 0 0 0 4.9 7.763 1.16 1.16 0 0 0 3.747 8.9h-.758V5.667a.406.406 0 0 1 .411-.406h8.33a.406.406 0 0 1 .406.406V8.9l-.724.011A1.153 1.153 0 0 0 9.1 8.9l-3 .011ZM3.417 5.847v1.236H5.14V5.667H3.6a.18.18 0 0 0-.183.18m2.173-.158v1.394H7.3V5.689Zm2.217 0v1.394H9.53V5.689Zm-1.119 2.03v.758a.13.13 0 0 0 .132.131h1.558a.13.13 0 0 0 .132-.131v-.758a.13.13 0 0 0-.132-.131h-.472v-.275h-.615v.275H6.82a.13.13 0 0 0-.132.131m4.857-2.03H10v1.394h1.723V5.869a.18.18 0 0 0-.178-.18" style="fill:#342c2a" transform="translate(-2.09 -2.09)"/>
  <path d="M5.3 5.322h.34v.176H5.3z" style="fill:#342c2a"/>
  <circle cx="2.809" cy="6.815" r=".845" style="fill:#342c2a"/>
  <circle cx="8.165" cy="6.815" r=".845" style="fill:#342c2a"/>
  <rect width="10.47" height="10.47" x=".175" y=".175" rx="2.18" style="fill:none;stroke:#342c2a;stroke-miterlimit:10;stroke-width:.35px"/>
</svg>

<svg id="图层_1" data-name="图层 1" xmlns="http://www.w3.org/2000/svg" viewBox="0 0 10.82 10.82" width="12" height="12">
  <defs>
    <style>
      .cls-1 {
        fill: #342c2a;
      }

      .cls-2 {
        fill: none;
        stroke: #342c2a;
        stroke-miterlimit: 10;
        stroke-width: 0.35px;
      }
    </style>
  </defs>
  <title>Coach_Qingdao-24.6.23</title>
  <g>
    <path class="cls-1" d="M6.029,8.916A1.147,1.147,0,0,0,4.9,7.763,1.162,1.162,0,0,0,3.747,8.9H2.989V5.667A.406.406,0,0,1,3.4,5.261h8.33a.406.406,0,0,1,.406.406V8.9l-.724.011A1.153,1.153,0,0,0,9.1,8.9l-3,.011ZM3.417,5.847V7.083H5.14V5.667H3.6A.181.181,0,0,0,3.417,5.847ZM5.59,5.689V7.083H7.3V5.689Zm2.217,0V7.083H9.53V5.689ZM6.688,7.719v.758a.132.132,0,0,0,.132.131H8.378a.132.132,0,0,0,.132-.131V7.719a.132.132,0,0,0-.132-.131H7.906V7.313H7.291v.275H6.82A.132.132,0,0,0,6.688,7.719Zm4.857-2.03H10V7.083h1.723V5.869A.18.18,0,0,0,11.545,5.689Z" transform="translate(-2.09 -2.09)"/>
    <rect class="cls-1" x="5.3" y="5.322" width="0.34" height="0.176"/>
    <circle class="cls-1" cx="2.809" cy="6.815" r="0.845"/>
    <circle class="cls-1" cx="8.165" cy="6.815" r="0.845"/>
    <rect class="cls-2" x="0.175" y="0.175" width="10.47" height="10.47" rx="2.18"/>
  </g>
</svg>
